X: 18779
T: If Only A Little
R: three-two
M: 3/2
K: Gmajor
G2BA2!slide!BG2dc{c}BG|!slide!E2 G !slide!A2 G{A}GAABDE|
G2BA2!slide!BG2dc{c}BG|cdeG2AAB FGGz|
GDBA2!slide!BG2dc{c}BG|!slide!E2 G !slide!A2 G{A}GAABDE|
G2BA2!slide!BG2dc{c}BG|cdeG2A{c}AB FGGz|
M:7/8
|:{c'}add Ja2{a}gfeJga a2gz|c'bg g<ag2 Jgfd GAG2|
add Ja2{a}g{a}feJga Ja2gz|c'bg g<agz Jgfd G4:|

